storage/app/icons/phosphoricons/light/envelope-simple-open-light.svg

<svg xmlns="http://www.w3.org/2000/svg" fill="currentColor" viewBox="0 0 256 256"><path d="m227.33 91-96-64a6 6 0 0 0-6.66 0l-96 64A6 6 0 0 0 26 96v104a14 14 0 0 0 14 14h176a14 14 0 0 0 14-14V96a6 6 0 0 0-2.67-5M128 39.21l85.43 57-69.9 49.79h-31.06l-69.9-49.83ZM216 202H40a2 2 0 0 1-2-2v-92.35l69.06 49.24a6.06 6.06 0 0 0 3.49 1.11h34.9a6.06 6.06 0 0 0 3.49-1.11L218 107.65V200a2 2 0 0 1-2 2"/></svg>

<svg xmlns="http://www.w3.org/2000/svg" viewBox="0 0 256 256" fill="currentColor"><path d="M227.33,91l-96-64a6,6,0,0,0-6.66,0l-96,64A6,6,0,0,0,26,96V200a14,14,0,0,0,14,14H216a14,14,0,0,0,14-14V96A6,6,0,0,0,227.33,91ZM128,39.21l85.43,57L143.53,146H112.47L42.57,96.17ZM216,202H40a2,2,0,0,1-2-2V107.65l69.06,49.24a6.06,6.06,0,0,0,3.49,1.11h34.9a6.06,6.06,0,0,0,3.49-1.11L218,107.65V200A2,2,0,0,1,216,202Z"/></svg>
